X: 636
T: Vals from Orsa
B: good tune book
B: tunes
M:3/4
R: waltz
Q: 1/4=100
K:Dmajor
V:1 
|:A3A A2|B2 AG FA|d3d de|d2 cA de|f4 a2|a2 gf ed|Ac eg fe|1 d2 Bd BG:|2 d4 a2||
 b2 gb gb|a2 fd fa|ab ag ec|A2 df a2|b2 gb gb|a2 fd fa|ab ag ec|1 d4 (3fga:|2 d6||
 A2 d2 g2|f3e d2|d2 gb gb|a3f d2|de =f2 d2|e4 c2-|c2 Bd BG|A6|
 A2 f2 a2|g3f g2|A2 d2 f2|e3d e2|AB c2 d2|B3A B2|AB AG EC|D6||
% abcbook-tune_id 63dce8c7cf2d740674643375
% abcbook-tune_composer_id 
% abcbook-link-0 https://www.youtube.com/watch?v=NV4UUVIPK0U
% abcbook-boost 0
% abcbook-difficulty 0
% abcbook-tags good tune book
% abcbook-tablature 
% abcbook-transpose 
% abcbook-tuning 
% abcbook-lastupdated 1675481896607
% abcbook-soundfonts 
% abcbook-repeats 1


